X:1
T:Will Your Heart Ring True?
T:Will Your Heart Ring True?
T:Edwin Othello Excell
T:Almeda Hall Tarrant, 1917
T:Public Domain Courtesy of the Cyber Hymnal™
T:Public Domain Courtesy of the Cyber Hymnal™
C:Edwin Othello Excell
Z:Public Domain
Z:Courtesy of the Cyber Hymnal™
%%score ( 1 2 ) ( 3 4 )
L:1/8
Q:1/4=90
M:4/4
K:D
V:1 treble 
V:2 treble 
V:3 bass 
V:4 bass 
V:1
 [DF]>[EG] | [FA]>[^E^G] [FA]>[EG] [FA]<[DF] [=E=G]>[FA] | [GB]>[DE] [DE]>[DE] [CE]2 [CE]>[DF] | %3
w: 1.~When your|path is smooth and peace- ful, And your|skies are clear and blue, You may|
w: 2.~When the|beau- ty- bend- ing rain- bow Lays its|trea- sures at your feet, And a|
w: 3.~When you|think you’re ful- ly trust- ing In the|Sav- ior’s match- less love, And thro’|
 [EG]>[^DF] [EG]>[DF] [EG]<[FA] [Ac]>[GB] | [FA]>[EG] [DF]>[GB] [FA]2 [DF]>[EG] | %5
w: smile in glad con- tent- ment All the|hap- py morn- ing thro’; If af-|
w: field of lov- ing friend- ships Makes your|hap- pi- ness com- plete, If you|
w: faith you feel the woo- ing Of com-|pan- ion- ship a- bove, If the|
 [FA]>[^E^G] [FA]>[EG] [FA]<[DF] [=E=G]>[FA] | [GB]>[GB] [AB]>[AB] [GB]2 [Gc]>[Ac] | %7
w: flict- ion’s call is sound- ed, And the|num- ber rings for you, When the|
w: meet with sad re- vers- es And the|tempt- er fac- es you, When the|
w: clouds of doubt as- sail you Will you|look be- yond the blue, When the|
 [Ad]<[Fd] [Ad]>[Fd] [Ad]2 [Gd]>[Gd] | [^Gd]6 [FB]>[FB] | (z G F2) (z F E2) | z2 x8 || %11
w: clap- per strikes the gong, strikes the|gong, Will your|||
w: clap- per strikes the gong, strikes the|gong, Will your|||
w: clap- per strikes the gong, strikes the|gong, Will your|||
"^Refrain" [DF]>[EG] | ([FA]2 F2) ([EA]2 E2) | (z2 [DF]>)[FA] x6 | [Fd]<[Fd] z2 [Gc]2 [GB]2 | %15
w: heart ring|true? * * *|||
w: heart ring|true? * Will *|* your|heart ring true? Are|
w: heart ring|true? * * *|||
 [GA]6 [GB]>[Ac] | [Ad]<[Fd] [Ad]>[Fd] [Ad]2 [Gd]>[Gd] | [^Gd]6 [FB]>[FB] | %18
w: |||
w: you loy- al|thro’ and thro’? When the clap- per|strikes the gong,|
w: |||
 ([DF]2 F2) ([CEF]2 E2) | z2 x8 |] %20
w: ||
w: strikes * the *||
w: ||
V:2
 x2 | x8 | x8 | x8 | x8 | x8 | x8 | x8 | x8 | [DF]2 x [CE]2 x3 | D6 A,2 D2 || x2 | x8 | %13
 (D6 A,2 D2) | x8 | x8 | x8 | x8 | x8 | D6 A,2 D2 |] %20
V:3
 [D,A,]>[D,A,] | [D,D]>[D,D] [D,D]>[D,D] [D,D]<[D,A,] [D,D]>[D,D] | %2
 [G,D]>[G,B,] [G,B,]>[G,B,] [G,A,]2 A,>A, | %3
 [A,,A,]>[A,,A,] [A,,A,]>[A,,A,] [A,,A,]<[A,,A,] [A,,A,]>[A,,A,] | %4
 [D,A,]>[D,A,] [D,A,]>[D,D] [D,D]2 [D,A,]>[D,A,] | %5
 [D,D]>[D,D] [D,D]>[D,D] [D,D]<[D,A,] [D,D]>[D,D] | [G,D]>[G,D] [F,^D]>[F,D] [E,E]2 [A,E]>[G,E] | %7
 [F,D]<[D,D] [F,D]>[A,D] [=CD]2 [B,D]>[B,D] | [_B,D]6 [A,D]>[A,D] | (z B, A,2) (z A, G,2) | %10
 (z2 F,2 [D,F,]2) x4 || [D,A,]>[D,A,] | ([D,A,]2 A,2) ([A,,G,]2 G,2) | %13
 (z2 [D,F,]2) [D,A,]>[D,D] x4 | [D,A,]<[D,A,] z2 [E,A,]2 [E,C]2 | [A,C]6 [A,C]>[G,E] | %16
 [F,D]<[D,D] [F,D]>[A,D] [=CD]2 [B,D]>[B,D] | [_B,D]6 [A,D]>[A,D] | %18
 ([A,B,]2 A,2) ([A,,G,A,]2 G,2) | (z2 F,2 [D,F,]2) x4 |] %20
V:4
 x2 | x8 | x6 A,>A, | x8 | x8 | x8 | x8 | x8 | x8 | (A,2 x [A,,G,]2) x3 | [D,F,]6 x4 || x2 | %12
 x2 A,2 x4 | [D,F,]6 F,2 x2 | x8 | x8 | x8 | x8 | x2 A,2 x4 | [D,F,]6 x4 |] %20

